X:1
T:Portland County Jail
M:4/4
L:1/8
K:C
 C3/2 D/2| EE EE E C2 D| EE DE F4| FF FE FF F3/2 D/2| FD EF E4| EE G3/2 F/2 EE G3/2 F/2|\
 EC DE F3 A| GG G3/2 G/2 GG G3/2 G/2| GF ED C3||

